src/assets/bold/lm-file-sparkles-bold.svg

<svg width="24" height="24" viewBox="0 0 24 24" fill="none" xmlns="http://www.w3.org/2000/svg" fill="currentColor">
<path d="M14.7785 8.77166C14.4685 8.37145 14.0466 8.07232 13.5663 7.91222L12.3262 7.50905C12.231 7.47516 12.1486 7.41263 12.0903 7.33006C12.0321 7.24748 12.0008 7.14889 12.0008 7.04783C12.0008 6.94677 12.0321 6.84819 12.0903 6.76561C12.1486 6.68303 12.231 6.6205 12.3262 6.58661L13.5663 6.18344C13.9333 6.05672 14.2665 5.84806 14.5408 5.57331C14.8151 5.29856 15.0232 4.96493 15.1493 4.59775L15.1592 4.56716L15.5624 3.32794C15.5959 3.23211 15.6584 3.14907 15.7412 3.09032C15.824 3.03156 15.923 3 16.0245 3C16.126 3 16.225 3.03156 16.3078 3.09032C16.3906 3.14907 16.4531 3.23211 16.4866 3.32794L16.8889 4.56716C17.0146 4.94382 17.2264 5.286 17.5074 5.56655C17.7885 5.84711 18.131 6.05832 18.5079 6.18344L19.7471 6.58661L19.7723 6.59291C19.8675 6.6268 19.9499 6.68933 20.0081 6.77191C20.0664 6.85449 20.0977 6.95307 20.0977 7.05413C20.0977 7.15519 20.0664 7.25378 20.0081 7.33635C19.9499 7.41893 19.8675 7.48146 19.7723 7.51535L18.5322 7.91852C18.1555 8.04376 17.8131 8.25503 17.5322 8.53558C17.2514 8.81612 17.0397 9.15824 16.9141 9.53481L16.5109 10.774L16.4992 10.8046C16.4603 10.8952 16.395 10.9719 16.3118 11.0247C16.2286 11.0776 16.1314 11.1041 16.0329 11.1007C15.9344 11.0974 15.8392 11.0645 15.7598 11.0062C15.6803 10.9479 15.6203 10.867 15.5876 10.774L15.1844 9.53481C15.0943 9.25901 14.9573 9.00083 14.7794 8.77166M21.7044 12.1923L21.0151 11.9691C20.8059 11.8992 20.6159 11.7816 20.46 11.6255C20.3041 11.4695 20.1867 11.2793 20.1169 11.0701L19.892 10.3825C19.8733 10.3294 19.8386 10.2833 19.7927 10.2508C19.7467 10.2182 19.6918 10.2007 19.6355 10.2007C19.5792 10.2007 19.5242 10.2182 19.4783 10.2508C19.4323 10.2833 19.3976 10.3294 19.379 10.3825L19.1558 11.0701C19.0874 11.278 18.9718 11.4673 18.8182 11.6232C18.6646 11.7792 18.4771 11.8975 18.2703 11.9691L17.5818 12.1923C17.5287 12.211 17.4826 12.2456 17.45 12.2916C17.4174 12.3375 17.3999 12.3925 17.3999 12.4488C17.3999 12.5051 17.4174 12.5601 17.45 12.606C17.4826 12.652 17.5287 12.6867 17.5818 12.7053L18.2703 12.9294C18.4801 12.9993 18.6707 13.1173 18.8269 13.2738C18.9831 13.4303 19.1007 13.6212 19.1702 13.8311L19.3934 14.5187C19.412 14.5718 19.4467 14.6179 19.4927 14.6505C19.5386 14.683 19.5936 14.7005 19.6499 14.7005C19.7062 14.7005 19.7611 14.683 19.8071 14.6505C19.853 14.6179 19.8877 14.5718 19.9064 14.5187L20.1304 13.8311C20.2003 13.6218 20.3178 13.4315 20.4739 13.2755C20.6299 13.1195 20.8201 13.0019 21.0295 12.9321L21.7179 12.7089C21.7711 12.6903 21.8171 12.6556 21.8497 12.6096C21.8823 12.5637 21.8998 12.5087 21.8998 12.4524C21.8998 12.3961 21.8823 12.3411 21.8497 12.2952C21.8171 12.2492 21.7711 12.2146 21.7179 12.1959L21.7044 12.1923ZM11.1644 6.60101H4.57505C3.91868 6.60101 3.2892 6.86175 2.82508 7.32587C2.36096 7.78999 2.10022 8.41947 2.10022 9.07584V18.5252C2.10022 18.8502 2.16423 19.172 2.2886 19.4722C2.41298 19.7725 2.59527 20.0453 2.82508 20.2751C3.05489 20.5049 3.32771 20.6872 3.62797 20.8116C3.92823 20.936 4.25005 21 4.57505 21H17.6241C17.9491 21 18.2709 20.936 18.5712 20.8116C18.8715 20.6872 19.1443 20.5049 19.3741 20.2751C19.6039 20.0453 19.7862 19.7725 19.9106 19.4722C20.0349 19.172 20.099 18.8502 20.099 18.5252V15.5383C19.8739 15.6424 19.6215 15.6718 19.3786 15.6221C19.1357 15.5724 18.9151 15.4462 18.749 15.262V18.5252C18.749 19.1461 18.2451 19.6501 17.6241 19.6501H4.57505C3.95409 19.6501 3.45012 19.1461 3.45012 18.5252V9.07584C3.45012 8.45488 3.95409 7.95092 4.57505 7.95092H11.4353C11.4056 7.90982 11.3777 7.86748 11.3516 7.82403C11.2296 7.64772 11.1494 7.44599 11.117 7.2341C11.0846 7.02221 11.1008 6.80571 11.1644 6.60101ZM5.69997 10.8757C5.69997 10.6967 5.77108 10.525 5.89765 10.3984C6.02423 10.2719 6.19591 10.2008 6.37492 10.2008H10.4246C10.6036 10.2008 10.7753 10.2719 10.9019 10.3984C11.0285 10.525 11.0996 10.6967 11.0996 10.8757C11.0996 11.0547 11.0285 11.2264 10.9019 11.353C10.7753 11.4796 10.6036 11.5507 10.4246 11.5507H6.37492C6.19591 11.5507 6.02423 11.4796 5.89765 11.353C5.77108 11.2264 5.69997 11.0547 5.69997 10.8757ZM6.37492 12.9006C6.19591 12.9006 6.02423 12.9717 5.89765 13.0983C5.77108 13.2248 5.69997 13.3965 5.69997 13.5755C5.69997 13.7545 5.77108 13.9262 5.89765 14.0528C6.02423 14.1794 6.19591 14.2505 6.37492 14.2505H14.0244C14.2034 14.2505 14.3751 14.1794 14.5016 14.0528C14.6282 13.9262 14.6993 13.7545 14.6993 13.5755C14.6993 13.3965 14.6282 13.2248 14.5016 13.0983C14.3751 12.9717 14.2034 12.9006 14.0244 12.9006H6.37492ZM5.69997 16.2753C5.69997 16.0963 5.77108 15.9246 5.89765 15.7981C6.02423 15.6715 6.19591 15.6004 6.37492 15.6004H12.2245C12.4035 15.6004 12.5752 15.6715 12.7018 15.7981C12.8283 15.9246 12.8995 16.0963 12.8995 16.2753C12.8995 16.4543 12.8283 16.626 12.7018 16.7526C12.5752 16.8792 12.4035 16.9503 12.2245 16.9503H6.37492C6.19591 16.9503 6.02423 16.8792 5.89765 16.7526C5.77108 16.626 5.69997 16.4543 5.69997 16.2753Z" fill="black"/>
</svg>

<svg xmlns="http://www.w3.org/2000/svg" width="24" height="24" fill="currentColor" viewBox="0 0 24 24">
  <path d="M14.778 8.772c-.31-.4-.731-.7-1.212-.86l-1.24-.403a.49.49 0 0 1 0-.922l1.24-.404a2.556 2.556 0 0 0 1.583-1.585l.01-.03.403-1.24a.49.49 0 0 1 .925 0l.402 1.24a2.555 2.555 0 0 0 1.619 1.615l1.24.404.024.006a.49.49 0 0 1 0 .922l-1.24.404a2.556 2.556 0 0 0-1.618 1.616l-.403 1.239-.012.03a.49.49 0 0 1-.911-.03l-.404-1.24a2.521 2.521 0 0 0-.405-.762m6.925 3.42-.689-.223a1.42 1.42 0 0 1-.898-.899l-.225-.688a.272.272 0 0 0-.513 0l-.223.688a1.421 1.421 0 0 1-.886.9l-.688.222a.272.272 0 0 0 0 .513l.688.224a1.421 1.421 0 0 1 .9.902l.223.688a.272.272 0 0 0 .513 0l.224-.688a1.422 1.422 0 0 1 .9-.899l.688-.223a.271.271 0 0 0 0-.513l-.014-.004Zm-10.54-5.591H4.575A2.475 2.475 0 0 0 2.1 9.076v9.45A2.474 2.474 0 0 0 4.575 21h13.05a2.475 2.475 0 0 0 2.474-2.475v-2.987a1.161 1.161 0 0 1-1.35-.276v3.263c0 .621-.504 1.125-1.125 1.125H4.575a1.125 1.125 0 0 1-1.125-1.125v-9.45c0-.62.504-1.124 1.125-1.124h6.86a1.792 1.792 0 0 1-.083-.127 1.412 1.412 0 0 1-.188-1.223ZM5.7 10.876a.675.675 0 0 1 .675-.675h4.05a.675.675 0 0 1 0 1.35h-4.05a.675.675 0 0 1-.675-.675Zm.675 2.025a.675.675 0 1 0 0 1.35h7.65a.675.675 0 1 0 0-1.35h-7.65ZM5.7 16.275a.675.675 0 0 1 .675-.675h5.85a.675.675 0 1 1 0 1.35h-5.85a.675.675 0 0 1-.675-.675Z"/>
</svg>
